svg/u1f4a0.svg

<svg viewBox="0 0 128 128" xmlns="http://www.w3.org/2000/svg">
  <path d="M48.27,34.56L31.37,48.23l7.83,32.87l8.6,9.06l33.17-2.3l9.22-9.37c0,0-1.08-32.87-1.54-33.17 c-0.46-0.31-7.53-6.76-7.53-6.76L48.27,34.56z" fill="#8FD0EB"/>
  <path d="M52.01,76.47c1.04,1.18,6.09-4.16,12-4.25c5.94-0.09,10.62,4.43,11.36,3.69 c0.74-0.74-3.51-6.37-3.51-12.28s5.44-11.09,4.66-12.01c-0.92-1.09-5.96,3.7-12.61,3.79s-10.87-5.13-12.37-4.16 c-1.51,0.97,3.88,6.83,3.69,12.93C55.06,70.28,51.27,75.64,52.01,76.47z" fill="#FEFEFE"/>
  <radialGradient id="SVGID_1_" cx="64.24" cy="51.839" gradientUnits="userSpaceOnUse" r="35.9079">
    <stop offset="0.427" stop-color="#1F87FB"/>
    <stop offset="0.8158" stop-color="#05BFEA"/>
  </radialGradient>
  <path d="M63.74,2.97c-1.78,0.07-7.11,7.02-11.82,11.45s-10.8,10.53-9.79,18.38s9.14,16.71,22.72,16.81 s21.49-11.45,21.61-17.27c0.18-8.96-8.14-15.58-12.74-19.95C68.63,7.57,65.74,2.89,63.74,2.97z" fill="url(#SVGID_1_)"/>
  <radialGradient id="SVGID_2_" cx="70.2314" cy="63.7406" gradientUnits="userSpaceOnUse" r="38.338">
    <stop offset="0.427" stop-color="#1F87FB"/>
    <stop offset="0.8158" stop-color="#05BFEA"/>
  </radialGradient>
  <path d="M77.69,64.41c-0.48,16.94,13.96,25.35,25.21,19.09s21.22-18.94,21.36-20.22 c0.07-0.63-3.96-4.78-8.83-9.4c-5.03-4.77-10.11-9.83-18.23-10.68C88.75,42.29,78.13,49.03,77.69,64.41z" fill="url(#SVGID_2_)"/>
  <radialGradient id="SVGID_3_" cx="52.5113" cy="62.9471" gradientUnits="userSpaceOnUse" r="36.6341">
    <stop offset="0.427" stop-color="#1F87FB"/>
    <stop offset="0.8158" stop-color="#05BFEA"/>
  </radialGradient>
  <path d="M3.49,64.41c-0.35,1.3,5.12,5.82,12.26,12.03c5.46,4.75,10.96,9.33,16.94,9.19 c5.84-0.14,16.09-5.84,15.95-22.22C48.48,44.6,36.85,40.24,30.69,41.19c-5.81,0.9-10.62,5.11-15.74,10.12 C9.52,56.63,3.93,62.79,3.49,64.41z" fill="url(#SVGID_3_)"/>
  <radialGradient id="SVGID_4_" cx="63.8839" cy="78.0224" gradientUnits="userSpaceOnUse" r="32.5352">
    <stop offset="0.427" stop-color="#1F87FB"/>
    <stop offset="0.8158" stop-color="#05BFEA"/>
  </radialGradient>
  <path d="M63.88,78.51c-10.97-0.1-22.5,7.69-21.08,20.65c0.62,5.66,4.95,10.11,9.4,14.53 c5.74,5.7,11.92,10.66,12.96,10.82c0.92,0.14,7.31-6.02,12.68-12.82c3.67-4.65,7.06-9.57,7.12-13.1 C85.1,89.9,79.12,78.65,63.88,78.51z" fill="url(#SVGID_4_)"/>
  <path d="M85.83,34.59c-1.05,0.09-5.21,10.57-3.72,11.97c1.51,1.42,12.07-2.72,11.88-4.51 C93.82,40.27,87.53,34.46,85.83,34.59z" fill="#034EAC"/>
  <path d="M42.48,32.67c-1.65-0.64-8.37,5.58-8.23,8.06c0.1,1.76,10.47,6.08,12.09,4.61 C47.94,43.86,43.93,33.23,42.48,32.67z" fill="#034EAC"/>
  <path d="M46.93,81.02c-1.01-1.1-10.96,1.47-11.01,4.22c-0.06,3.77,5.21,7.38,6.97,6.88 C44.69,91.61,48.88,83.14,46.93,81.02z" fill="#034EAC"/>
  <path d="M80.56,81.43c-1.51,1.51,2.14,10.93,3.9,11.28c3.17,0.64,7.98-5.96,7.48-7.52 C91.28,83.16,81.62,80.37,80.56,81.43z" fill="#034EAC"/>
</svg>

<svg viewBox="0 0 128 128" xmlns="http://www.w3.org/2000/svg">
  <defs>
    <radialGradient id="SVGID_1_" cx="64.24" cy="51.839" gradientUnits="userSpaceOnUse" r="35.9079">
      <stop offset="0.427" stop-color="#1F87FB"/>
      <stop offset="0.8158" stop-color="#05BFEA"/>
    </radialGradient>
    <radialGradient id="SVGID_2_" cx="70.2314" cy="63.7406" gradientUnits="userSpaceOnUse" r="38.338">
      <stop offset="0.427" stop-color="#1F87FB"/>
      <stop offset="0.8158" stop-color="#05BFEA"/>
    </radialGradient>
    <radialGradient id="SVGID_3_" cx="52.5113" cy="62.9471" gradientUnits="userSpaceOnUse" r="36.6341">
      <stop offset="0.427" stop-color="#1F87FB"/>
      <stop offset="0.8158" stop-color="#05BFEA"/>
    </radialGradient>
    <radialGradient id="SVGID_4_" cx="63.8839" cy="78.0224" gradientUnits="userSpaceOnUse" r="32.5352">
      <stop offset="0.427" stop-color="#1F87FB"/>
      <stop offset="0.8158" stop-color="#05BFEA"/>
    </radialGradient>
  </defs>
  <path d="M48.27,34.56 L31.37,48.23 L39.2,81.1 L47.8,90.16 L80.97,87.86 L90.19,78.49 C90.19,78.49 89.11,45.62 88.65,45.32 C88.19,45.01 81.12,38.56 81.12,38.56 L48.27,34.56 Z" fill="#8FD0EB"/>
  <path d="M52.01,76.47 C53.05,77.65 58.1,72.31 64.01,72.22 C69.95,72.13 74.63,76.65 75.37,75.91 C76.11,75.17 71.86,69.54 71.86,63.63 C71.86,57.72 77.3,52.54 76.52,51.62 C75.6,50.53 70.56,55.32 63.91,55.41 C57.26,55.5 53.04,50.28 51.54,51.25 C50.03,52.22 55.42,58.08 55.23,64.18 C55.06,70.28 51.27,75.64 52.01,76.47 Z" fill="#FEFEFE"/>
  <path d="M63.74,2.97 C61.96,3.04 56.63,9.99 51.92,14.42 C47.21,18.85 41.12,24.95 42.13,32.8 C43.14,40.65 51.27,49.51 64.85,49.61 C78.43,49.71 86.34,38.16 86.46,32.34 C86.64,23.38 78.32,16.76 73.72,12.39 C68.63,7.57 65.74,2.89 63.74,2.97 Z" fill="url(#SVGID_1_)"/>
  <path d="M77.69,64.41 C77.21,81.35 91.65,89.76 102.9,83.5 C114.15,77.24 124.12,64.56 124.26,63.28 C124.33,62.65 120.3,58.5 115.43,53.88 C110.4,49.11 105.32,44.05 97.2,43.2 C88.75,42.29 78.13,49.03 77.69,64.41 Z" fill="url(#SVGID_2_)"/>
  <path d="M3.49,64.41 C3.14,65.71 8.61,70.23 15.75,76.44 C21.21,81.19 26.71,85.77 32.69,85.63 C38.53,85.49 48.78,79.79 48.64,63.41 C48.48,44.6 36.85,40.24 30.69,41.19 C24.88,42.09 20.07,46.3 14.95,51.31 C9.52,56.63 3.93,62.79 3.49,64.41 Z" fill="url(#SVGID_3_)"/>
  <path d="M63.88,78.51 C52.91,78.41 41.38,86.2 42.8,99.16 C43.42,104.82 47.75,109.27 52.2,113.69 C57.94,119.39 64.12,124.35 65.16,124.51 C66.08,124.65 72.47,118.49 77.84,111.69 C81.51,107.04 84.9,102.12 84.96,98.59 C85.1,89.9 79.12,78.65 63.88,78.51 Z" fill="url(#SVGID_4_)"/>
  <path d="M85.83,34.59 C84.78,34.68 80.62,45.16 82.11,46.56 C83.62,47.98 94.18,43.84 93.99,42.05 C93.82,40.27 87.53,34.46 85.83,34.59 Z" fill="#034EAC"/>
  <path d="M42.48,32.67 C40.83,32.03 34.11,38.25 34.25,40.73 C34.35,42.49 44.72,46.81 46.34,45.34 C47.94,43.86 43.93,33.23 42.48,32.67 Z" fill="#034EAC"/>
  <path d="M46.93,81.02 C45.92,79.92 35.97,82.49 35.92,85.24 C35.86,89.01 41.13,92.62 42.89,92.12 C44.69,91.61 48.88,83.14 46.93,81.02 Z" fill="#034EAC"/>
  <path d="M80.56,81.43 C79.05,82.94 82.7,92.36 84.46,92.71 C87.63,93.35 92.44,86.75 91.94,85.19 C91.28,83.16 81.62,80.37 80.56,81.43 Z" fill="#034EAC"/>
</svg>
